src/xmb/monochrome/Unofficial - Sony - PlayStation Vita.svg

<svg xmlns="http://www.w3.org/2000/svg" xml:space="preserve" viewBox="0 0 64 64"><path d="M0 0c-.6 0-1 .4-1 1s.4 1 1 1 1-.4 1-1-.4-1-1-1m-2-2c-.6 0-1 .4-1 1s.4 1 1 1 1-.4 1-1-.4-1-1-1m0-8c-.6 0-1 .2-1 .5s.4.5 1 .5 1-.2 1-.5-.4-.5-1-.5m-4-4c0 2 4 2 4 2-1-2-4-2-4-2m1 5c.6 0 1-.2 1-.5s-.4-.5-1-.5-1 .2-1 .5.4.5 1 .5m-.5 14c.3 0 .5-.2.5-.5s-.2-.5-.5-.5-.5.2-.5.5.2.5.5.5M-2-5.5C-2-6.3-2.7-7-3.5-7S-5-6.3-5-5.5-4.3-4-3.5-4-2-4.7-2-5.5M-4 2c.6 0 1-.4 1-1s-.4-1-1-1-1 .4-1 1 .4 1 1 1m2 2c.6 0 1-.4 1-1s-.4-1-1-1-1 .4-1 1 .4 1 1 1m-6-16h-32V7h32zm-38 0s3 0 4-2c0 0-3 0-4 2m-1 3c0 .6.9 1 2 1s2-.4 2-1-.9-1-2-1-2 .4-2 1m-1.3 9v.1q-.45.9 0 1.8V2h1.4l.8-.8c.1-.1.1-.3 0-.4l-.7-.8zm1.8 3.8h.1q.9.45 1.8 0h.1V2.3l-.8-.8c-.1-.1-.3-.1-.4 0l-.8.8zm.1-5.6h-.1v1.4l.8.8c.1.1.3.1.4 0l.8-.8v-1.4h-.1q-.9-.45-1.8 0m1.9-2.2c.8 0 1.5-.7 1.5-1.5S-43.7-7-44.5-7s-1.5.7-1.5 1.5.7 1.5 1.5 1.5m1.8 6v-.1q.45-.9 0-1.8V0h-1.4l-.8.8c-.1.1-.1.3 0 .4l.8.8zm42 4.2C-3.5 9-8 9-8 9h-32s-4.5 0-7.3-2.8c0 0-3.7-2.8-3.7-7.4V-4c0-.6.1-1.3.2-1.9.4-1.5 1.2-4.1 2.5-5.4 0 0 .9-1.8 3.7-2.8 2.8-.9 4.7-.9 4.7-.9h31.7s1.9 0 4.7.9S.2-11.3.2-11.3c1.3 1.3 2.2 4 2.5 5.4.2.7.3 1.3.3 1.9v3C3 3.6-.7 6.2-.7 6.2" style="fill:#fff" transform="matrix(1 0 0 -1 56 29)"/></svg>

<?xml version="1.0" encoding="utf-8"?>
<!-- Generator: Adobe Illustrator 26.3.1, SVG Export Plug-In . SVG Version: 6.00 Build 0)  -->
<svg version="1.1"
	 id="svg5145" xmlns:cc="http://creativecommons.org/ns#" xmlns:dc="http://purl.org/dc/elements/1.1/" xmlns:svg="http://www.w3.org/2000/svg" xmlns:rdf="http://www.w3.org/1999/02/22-rdf-syntax-ns#" xmlns:inkscape="http://www.inkscape.org/namespaces/inkscape" xmlns:sodipodi="http://sodipodi.sourceforge.net/DTD/sodipodi-0.dtd"
	 xmlns="http://www.w3.org/2000/svg" xmlns:xlink="http://www.w3.org/1999/xlink" x="0px" y="0px" viewBox="0 0 64 64"
	 style="enable-background:new 0 0 64 64;" xml:space="preserve">
<style type="text/css">
	.st0{fill:#FFFFFF;}
</style>
<sodipodi:namedview  bordercolor="#666666" borderopacity="1" gridtolerance="10" guidetolerance="10" id="namedview5147" inkscape:current-layer="g5153" inkscape:cx="6.9736842" inkscape:cy="40" inkscape:pageopacity="0" inkscape:pageshadow="2" inkscape:window-height="1005" inkscape:window-maximized="1" inkscape:window-width="1676" inkscape:window-x="4" inkscape:window-y="1" inkscape:zoom="3.8" objecttolerance="10" pagecolor="#808080" showgrid="false">
	</sodipodi:namedview>
<g id="g5153" transform="matrix(1.25,0,0,-1.25,0,64)" inkscape:groupmode="layer" inkscape:label="Sony - PlayStation Vita">
	<g id="g5155" transform="scale(0.8,0.8)">
		<g>
			<g id="g5157">
				<g id="g5163" transform="translate(56,35)">
					<path id="path5165" inkscape:connector-curvature="0" class="st0" d="M0,0c-0.6,0-1,0.4-1,1s0.4,1,1,1s1-0.4,1-1S0.6,0,0,0
						 M-2-2c-0.6,0-1,0.4-1,1s0.4,1,1,1s1-0.4,1-1S-1.4-2-2-2 M-2-10c-0.6,0-1,0.2-1,0.5S-2.6-9-2-9s1-0.2,1-0.5S-1.4-10-2-10
						 M-6-14c0,2,4,2,4,2C-3-14-6-14-6-14 M-5-9c0.6,0,1-0.2,1-0.5S-4.4-10-5-10s-1,0.2-1,0.5S-5.6-9-5-9 M-5.5,5
						C-5.2,5-5,4.8-5,4.5S-5.2,4-5.5,4S-6,4.2-6,4.5S-5.8,5-5.5,5 M-2-5.5C-2-6.3-2.7-7-3.5-7S-5-6.3-5-5.5S-4.3-4-3.5-4
						S-2-4.7-2-5.5 M-4,2c0.6,0,1-0.4,1-1s-0.4-1-1-1s-1,0.4-1,1S-4.6,2-4,2 M-2,4c0.6,0,1-0.4,1-1s-0.4-1-1-1s-1,0.4-1,1
						S-2.6,4-2,4 M-8-12h-32V7h32V-12z M-46-12c0,0,3,0,4-2C-42-14-45-14-46-12 M-47-9c0,0.6,0.9,1,2,1s2-0.4,2-1c0-0.6-0.9-1-2-1
						S-47-9.6-47-9 M-48.3,0l0,0.1c-0.3,0.6-0.3,1.2,0,1.8l0,0.1h1.4l0.8-0.8c0.1-0.1,0.1-0.3,0-0.4L-46.8,0H-48.3z M-46.5,3.8
						l0.1,0c0.6,0.3,1.2,0.3,1.8,0l0.1,0V2.3l-0.8-0.8c-0.1-0.1-0.3-0.1-0.4,0l-0.8,0.8C-46.5,2.3-46.5,3.8-46.5,3.8z M-46.4-1.8
						l-0.1,0v1.4l0.8,0.8c0.1,0.1,0.3,0.1,0.4,0l0.8-0.8v-1.4l-0.1,0C-45.2-2.1-45.8-2.1-46.4-1.8 M-44.5-4c0.8,0,1.5-0.7,1.5-1.5
						S-43.7-7-44.5-7S-46-6.3-46-5.5S-45.3-4-44.5-4 M-42.7,2l0-0.1c0.3-0.6,0.3-1.2,0-1.8l0-0.1h-1.4l-0.8,0.8
						c-0.1,0.1-0.1,0.3,0,0.4l0.8,0.8H-42.7z M-0.7,6.2C-3.5,9-8,9-8,9h-32c0,0-4.5,0-7.3-2.8c0,0-3.7-2.8-3.7-7.4V-4
						c0-0.6,0.1-1.3,0.2-1.9c0.4-1.5,1.2-4.1,2.5-5.4c0,0,0.9-1.8,3.7-2.8c2.8-0.9,4.7-0.9,4.7-0.9h31.7c0,0,1.9,0,4.7,0.9
						s3.7,2.8,3.7,2.8c1.3,1.3,2.2,4,2.5,5.4C2.9-5.2,3-4.6,3-4v3C3,3.6-0.7,6.2-0.7,6.2"/>
				</g>
			</g>
		</g>
	</g>
</g>
</svg>
